X: 15
T:The Barley Mow
% Nottingham Music Database
S:Trad, arr Phil Rowe
M:6/8
K:G
"G"G2G "D"A2A|"G"B2c dBG|"C"E2E c2B|"Am"ABG "D7"FED|"G"G2G "D"A2A|"G"B2c dBG|\
"C"EcB "D7"AGF|"G"G6:|
"G"d2d "C"e2e|"G"d2g dBG|"G"d2d "C"e2e|"G"dBG "D"A3|"G"d2d "C"e2e|"G"d2g g2f|\
"A7"egf ed^c|"D7"d3 D3||
"G"G2G "D"A2A|"G"B2c dBG|"C"E2E c2B|"Am"ABG "D7"FED|"G"G2G "D"A2A|"G"B2c dBG|\
"C"EcB "D7"AGF|"G"G6||


